X:71
T:71 Manfrend
C:Welch MS
I:abc2nwc
M:6/8
L:1/8
K:G
D|DBB BcA|AGG G2d|dFF F2A|AGG G2D|DBB BcA|AGG G2d|dFF F2A|AGG G2:|
g|f2a a2c|B2d d2g|fga afd|Bcd def|g2g gfg|ece gfe|ded cBA|G2G G2:|


